X: 1759
T: Sevdiğim Vaslını Gayetle...
C: ?
O: Turkey
F: http://compmusic.upf.edu/node/140
N: isfahan--sarki--curcuna--sevdigim_vaslini--
N: makam= isfahan
N: form= sarki
N: usul= curcuna = 10/8
M: 10/8
L: 1/16
K: C _2/4B   
Q: 1/4=192
%%MIDI tuningsystem comma53
A2B2 c2d2 e2^3/4c2 e2d6  | d2e2 ^3/4f2g2 f2^e2 g2^f6  | \
w:  ARANAĞME  |   | 
e2^3/4f2 g2a2 g2=f2 e2d2 c2B2  | 
w:   | 
c4 d2c2 d2c2 d2c4B2  | c4 B2c4d4e4d2  | \
w:   |   | 
d4 a2g2 f2e2 d2c4B2  | 
w:   | 
c4 B2B2 A2A2 G2e4d2  | c4 B2c2 A2B4A2 B2G2  | \
w:   |   | 
A4 f2e2 d2c2 B2A6  | 
w:   | 
A2B2 c2d2 e2^3/4c2 e2d6  | d2e2 ^3/4f2g2 f2^e2 g2^f6  | \
w:  ARANAĞME  |   | 
e2^3/4f2 g2a2 g2=f2 e2d2 c2B2  | 
w:   | 
c4 d2c2 d2c2 d2c4B2  | c4 B2c4d4e4d2  | \
w:   |   | 
d4 a2g2 f2e2 d2c4B2  | 
w:   | 
c4 B2B2 A2A2 G2e4d2  | c4 B2c2 A2B4A2 B2G2  | \
w:   |   | 
A4 f2e2 d2c2 B2A6  | 
w:   | 
=B6^3/4c4d4e4d2  | d8-d2(3d2c2d2c4B2  | \
w:  Sev di ğim   |  vas  | 
g4 f2f2 e2e2 d2d2 c2B2  | 
w:  lı *  nı  *  gâ  | 
c4 c2d4c2 d2c4B2  | ^3/4c4 B2c4d4e4d2  | \
w:  yet  |  le  *  te men  | 
d8-d2(3g2^3/4f2g2a4f2  | ^3/4f4 e2d4(3e2d2e2d4^3/4c2  | 
w:  nî   |  e *  *  de  | 
d4 f2e2 d2e2 ^c2d6  | ^3/4f6f4f4e2 d4  | \
w:  rim   SAZ  |  Yevm_ i  mah  | 
d4 e2^3/4f4(3g2f2g2a6  | e4 e2e2 d2de dcc4B2  | 
w:  şer  |  de  *  bi *  le   | 
d8-d2c2 d2c4B2  | z4 B2d4dc dec4B2  | \
w:  ben   |  se ni  hak  | 
BcBA A4 G2ef edd4B2  | 
w:  tan   | 
c2B2 c4 A2B2 A2B4G2  | {B}A4 f2e2 d2c2 e2d6  | \
w:  di *  *  *  *  *  *  le  |  *  rim   SAZ  | 
^3/4f6f4f4e2 d4  | d4 e2^3/4f4(3g2f2g2a6  | 
w:  Yevm_ i  mah  |  şer  | 
e4 e2e2 d2de dcc4B2  | d8-d2c2 d2c4B2  | \
w:  de  *  bi *  le   |  ben   | 
z4 B2d4dc dec4B2  | 
w:  se ni  hak  | 
BcBA A4 G2ef edd4B2  | c2B2 c4 A2B2 A2B4G2  | \
w:  tan   |  di *  *  *  *  *  *  le  | 
{B}A4 b2a2 g2^3/4f2 g2a6  | 
w:  *  rim   SAZ  | 
g4 g2a4a2 g2b4a2  | a4 a2b4a2 g2^3/4f6  | \
w:  Cân_ *  ü  dil  |  den   | 
e4 e2^3/4f4g2 a2g2 f2e2  | 
w:  me *  le ğim   | 
d4 d2d4d2 ^3/4c2d6  | d2^3/4c2 =B2c4d4e4d2  | \
w:  çeş  |  mi *  *  ni  her   | 
d4 d2d4(3g2^3/4f2g2a6  | ^3/4f6d4e2 d2d4^3/4c2  | 
w:  dem   |  se *  ve  | 
d4 f2e2 d2c2 e2d6  | ^3/4f6f4f4e2 d4  | \
w:  rim   SAZ  |  Yevm_ i  mah  | 
d4 e2^3/4f4(3g2f2g2a6  | e4 e2e2 d2de dcc4B2  | 
w:  şer  |  de  *  bi *  le   | 
d8-d2c2 d2c4B2  | z4 B2d4dc dec4B2  | \
w:  ben   |  se ni  hak  | 
BcBA A4 G2ef edd4B2  | 
w:  tan   | 
c2B2 c4 A2B2 A2B4G2  | {B}A4 f2e2 d2c2 e2d6  | \
w:  di *  *  *  *  *  *  le  |  *  rim   SAZ  | 
^3/4f6f4f4e2 d4  | d4 e2^3/4f4(3g2f2g2a6  | 
w:  Yevm_ i  mah  |  şer  | 
e4 e2e2 d2de dcc4B2  | d8-d2c2 d2c4B2  | \
w:  de  *  bi *  le   |  ben   | 
z4 B2d4dc dec4B2  | 
w:  se ni  hak  | 
BcBA A4 G2ef edd4B2  | c2B2 c4 A2B2 A2B4G2  | \
w:  tan   |  di *  *  *  *  *  *  le  | 
{B}A4 f2e2 d2c2 B2A4z2  | 
w:  *  rim   SAZ  | 
|


